src/assets/icons/svg/edit.svg

<svg width="24" height="24" viewBox="0 0 24 24" fill="none" xmlns="http://www.w3.org/2000/svg">
<path d="M16.5225 10.3125C16.5225 9.79472 16.1027 9.375 15.585 9.375H5.92871C5.41093 9.375 4.99121 9.79472 4.99121 10.3125C4.99121 10.8303 5.41093 11.25 5.92871 11.25H15.585C16.1027 11.25 16.5225 10.8303 16.5225 10.3125Z" fill="black"/>
<path d="M5.92871 13.125C5.41093 13.125 4.99121 13.5447 4.99121 14.0625C4.99121 14.5803 5.41093 15 5.92871 15H11.7933C12.3111 15 12.7308 14.5803 12.7308 14.0625C12.7308 13.5447 12.3111 13.125 11.7933 13.125H5.92871Z" fill="black"/>
<path d="M8.13152 22.125H4.99609C3.96222 22.125 3.12109 21.2839 3.12109 20.25V3.75C3.12109 2.71613 3.96222 1.875 4.99609 1.875H16.5221C17.556 1.875 18.3971 2.71613 18.3971 3.75V9.51562C18.3971 10.0334 18.8169 10.4531 19.3346 10.4531C19.8524 10.4531 20.2721 10.0334 20.2721 9.51562V3.75C20.2721 1.68225 18.5899 0 16.5221 0H4.99609C2.92834 0 1.24609 1.68225 1.24609 3.75V20.25C1.24609 22.3177 2.92834 24 4.99609 24H8.13152C8.6493 24 9.06902 23.5803 9.06902 23.0625C9.06902 22.5447 8.6493 22.125 8.13152 22.125Z" fill="black"/>
<path d="M21.9321 13.5737C20.8355 12.4771 19.0513 12.477 17.9554 13.5729L12.8084 18.7085C12.6991 18.8176 12.6184 18.952 12.5735 19.0997L11.4526 22.7899C11.3532 23.1171 11.4398 23.4724 11.6786 23.7171C11.8575 23.9005 12.1005 24 12.3497 24C12.4331 24 12.5173 23.9888 12.5999 23.9659L16.3839 22.9177C16.5396 22.8746 16.6816 22.792 16.7959 22.6778L21.9322 17.5512C23.0288 16.4546 23.0288 14.6703 21.9321 13.5737ZM15.6458 21.1766L13.7421 21.7039L14.2992 19.8698L17.7722 16.4045L19.0983 17.7306L15.6458 21.1766ZM20.607 16.2248L20.4254 16.4061L19.0995 15.0802L19.2805 14.8996C19.6461 14.534 20.2408 14.534 20.6064 14.8996C20.9719 15.2651 20.9719 15.8598 20.607 16.2248Z" fill="black"/>
<path d="M15.585 5.625H5.92871C5.41093 5.625 4.99121 6.04472 4.99121 6.5625C4.99121 7.08028 5.41093 7.5 5.92871 7.5H15.585C16.1027 7.5 16.5225 7.08028 16.5225 6.5625C16.5225 6.04472 16.1027 5.625 15.585 5.625Z" fill="black"/>
</svg>

<?xml version="1.0" encoding="iso-8859-1"?>
<!-- Generator: Adobe Illustrator 23.1.0, SVG Export Plug-In . SVG Version: 6.00 Build 0)  -->
<svg version="1.1" id="&#x421;&#x43B;&#x43E;&#x439;_1"
	 xmlns="http://www.w3.org/2000/svg" xmlns:xlink="http://www.w3.org/1999/xlink" x="0px" y="0px" viewBox="0 0 24 24"
	 style="enable-background:new 0 0 24 24;" xml:space="preserve">
<path d="M16.522,10.313c0-0.518-0.42-0.938-0.937-0.938H5.929c-0.518,0-0.938,0.42-0.938,0.938c0,0.518,0.42,0.938,0.938,0.938
	h9.656C16.103,11.25,16.522,10.83,16.522,10.313z"/>
<path d="M5.929,13.125c-0.518,0-0.938,0.42-0.938,0.938S5.411,15,5.929,15h5.865c0.518,0,0.938-0.42,0.938-0.938
	s-0.42-0.938-0.938-0.938H5.929z"/>
<path d="M8.132,22.125H4.996c-1.034,0-1.875-0.841-1.875-1.875V3.75c0-1.034,0.841-1.875,1.875-1.875h11.526
	c1.034,0,1.875,0.841,1.875,1.875v5.766c0,0.518,0.42,0.937,0.938,0.937c0.518,0,0.938-0.42,0.938-0.937V3.75
	c0-2.068-1.682-3.75-3.75-3.75H4.996c-2.068,0-3.75,1.682-3.75,3.75v16.5c0,2.068,1.682,3.75,3.75,3.75h3.135
	c0.518,0,0.938-0.42,0.938-0.938S8.649,22.125,8.132,22.125z"/>
<path d="M21.932,13.574c-1.097-1.097-2.881-1.097-3.977-0.001l-5.147,5.136c-0.109,0.109-0.19,0.243-0.235,0.391l-1.121,3.69
	c-0.099,0.327-0.013,0.683,0.226,0.927C11.858,23.9,12.101,24,12.35,24c0.083,0,0.168-0.011,0.25-0.034l3.784-1.048
	c0.156-0.043,0.298-0.126,0.412-0.24l5.136-5.127C23.029,16.455,23.029,14.67,21.932,13.574z M15.646,21.177l-1.904,0.527
	l0.557-1.834l3.473-3.465l1.326,1.326L15.646,21.177z M20.607,16.225l-0.182,0.181L19.1,15.08l0.181-0.181
	c0.366-0.366,0.96-0.366,1.326,0C20.972,15.265,20.972,15.86,20.607,16.225z"/>
<path d="M15.585,5.625H5.929c-0.518,0-0.938,0.42-0.938,0.938S5.411,7.5,5.929,7.5h9.656c0.518,0,0.937-0.42,0.937-0.938
	S16.103,5.625,15.585,5.625z"/>
</svg>
